X:1
T:Title
%%score { ( 1 4 5 ) | ( 2 3 ) }
L:1/8
Q:1/4=90
M:6/8
K:G
V:1 treble nm="Grand Piano"
V:4 treble 
V:5 treble 
V:2 bass 
V:3 bass 
V:1
 [Bd]>[Ac][GB] [DB][DA][DG] | E2 G D3 | DGA BA>G | .[DFA]3 .[Ad]3 | [Bd]>[Ac][GB] [DB][DA][DG] | %5
w: H.~G.~Blossen * * * * *|||||
 E2 G D2 D | E[DG][Ac] [GB][GB]>A | G6 | FFG AA[DA] | [DG]G[DFA] [DGB]2 [DGB] | %10
w: |||||
 [EGc][EGc][DGc] [GB]A>G | G3 .F3 | [G,B,D][G,DG]A BB>d | d[Dc][DB] [CE]2 [EA] | %14
w: ||||
 [DG][DF][DG] [DA][GB]>[EG^c] | d6 | .d6 | .d6 | e3- e d2 | d6 | .d6 | .B6 | G3 .F3 | %23
w: |||||||||
 A-[FA-][FA-] [FA]3 | .d6 | .d6 | e3- e d2 | d6 | .d6 | z B2 [DGB]2 [EA] | G6- | G6 |] %32
w: |||||||||
V:2
 G,>G,G, G,[D,F,][B,,G,] | [C,G,C]2 [E,G,C] [G,B,]3 | %2
 [G,B,][K:treble][G,B,D][G,DF] [G,DG][K:bass][F,D]>[E,^CE] | z A,G, .F,3 | %4
 G,>G,G, G,[D,F,][B,,G,] | [C,G,C]2 [E,G,C] [G,B,]2 [B,,G,] | %6
 [C,G,C][B,,G,][A,,A,] [D,B,][D,D]>[D,CD] | [G,B,D]6 | [D,A,D][D,A,D][D,G,D] [D,F,D][D,F,D][C,F,] | %9
 z DD, G,2 G, | C,C,D, [E,G,][F,A,D]>[G,B,D] | B,3 .A,3 | %12
 G,,B,,[D,G,D][K:treble] [G,D][G,G]>[G,G] | [G,,B,G][A,,A,][B,,G,] [C,G,]2 [C,G,] | %14
 [B,,G,][B,,G,][B,,G,] [A,,F,][A,,A,]>A,, | D,2 [E,^C] .[F,=C]3 | [G,B,G][G,B,][G,B,] .[G,B,]3 | %17
 [G,B,G][K:bass][G,B,][G,B,] .[G,B,]3 | [C,C][C,C][C,C] [C,C][C,C][E,C] | %19
 [G,B,G][G,B,][G,B,] .[G,B,]3 | [G,B,G][K:bass][G,B,][G,B,] .[G,B,]3 | %21
 [B,,B,][B,,B,][B,,B,] .[B,,B,]3 | [E,B,E][E,B,][E,B,] [B,^D][A,B,][G,B,E] | %23
 [D,A,][D,A,][D,A,] .[D,A,]3 | [G,B,G][G,B,][G,B,] .[G,B,]3 | %25
 [G,B,G][K:bass][G,B,][G,B,] .[G,B,]3 | [C,C][C,C][C,C] [C,C][C,B,][E,_B,] | %27
 [G,B,G][G,B,][G,B,] [G,B,]2 [G,B,G] | [G,B,G][G,B,][G,B,] z .G2 | [B,D] D2 z2 C | z B,B, C2 C | %31
 B,2 _B, .=B,3 |] %32
V:3
 x6 | x6 | x[K:treble] x3[K:bass] x2 | D,6 | x6 | x6 | x6 | x6 | x6 | .[B,,G,]3 z3 | x6 | [D,D]6 | %12
 x3[K:treble] x3 | x6 | x6 | x6 | x6 | x[K:bass] x5 | x6 | x6 | x[K:bass] x5 | x6 | x6 | x6 | x6 | %25
 x[K:bass] x5 | x6 | x6 | z3 .[G,B,]3 | D,3 D,3 | G,,6- | G,,6 |] %32
V:4
 x6 | x6 | x6 | x6 | x6 | x6 | x6 | x6 | x6 | x6 | x6 | x6 | x6 | x6 | x6 | [DF]2 G .A3 | %16
 z GG z BG | z GG z BG | GGG G.G>^c | z GG .G3 | z GG z cB | ^DDD z AG | z EE z ^DG | .F3 z3 | %24
 z GG z BG | z GG z BG | GGG G.G>^c | z GG G2 d | z GG GBG | G3 z3 | [B,D] .D2 E2 ^D | z2 ^C .D3 |] %32
V:5
 x6 | x6 | x6 | x6 | x6 | x6 | x6 | x6 | x6 | x6 | x6 | x6 | x6 | x6 | x6 | x6 | z3 .G3 | z3 .G3 | %18
 z3 z2 G | x6 | z3 .D3 | z3 .^D3 | x6 | x6 | z3 .G3 | z3 .G3 | z3 z2 G | x6 | x6 | x6 | z2 D- D3- | %31
 D2 z z3 |] %32

